assets/images/sun.svg

<svg height="28" viewBox="0 0 28 28" width="28" xmlns="http://www.w3.org/2000/svg" xmlns:xlink="http://www.w3.org/1999/xlink"><filter id="a"><feColorMatrix in="SourceGraphic" type="matrix" values="0 0 0 0 0.002548 0 0 0 0 0.002367 0 0 0 0 0.002367 0 0 0 1.000000 0"/></filter><g fill="none" fill-rule="evenodd" filter="url(#a)" transform="translate(-911 -22)"><g transform="translate(911.008511 22.001793)"><rect height="27.5" rx="5" stroke="#000" stroke-opacity=".2" stroke-width=".5" width="27.5" x=".25" y=".25"/><g fill="#333" fill-rule="nonzero" transform="translate(6 6)"><path d="m7.9245283 4.52830189c1.87270047 0 3.3962264 1.52352594 3.3962264 3.39622641s-1.52352593 3.3962264-3.3962264 3.3962264-3.39622641-1.52352593-3.39622641-3.3962264 1.52352594-3.39622641 3.39622641-3.39622641m0-1.13207547c-2.50100236 0-4.52830188 2.02747641-4.52830188 4.52830188 0 2.5008255 2.02729952 4.5283019 4.52830188 4.5283019 2.5010024 0 4.5283019-2.0274764 4.5283019-4.5283019 0-2.50082547-2.0272995-4.52830188-4.5283019-4.52830188zm-6.22641509 5.09433962h-1.13207547c-.31255897 0-.56603774-.25347878-.56603774-.56603774s.25347877-.56603773.56603774-.56603773h1.13207547c.31255896 0 .56603773.25347877.56603773.56603773s-.25347877.56603774-.56603773.56603774zm13.58490569 0h-1.1320755c-.312559 0-.5660377-.25347878-.5660377-.56603774s.2534787-.56603773.5660377-.56603773h1.1320755c.3125589 0 .5660377.25347877.5660377.56603773s-.2534788.56603774-.5660377.56603774z"/><path d="m7.9245283 15.8490566c-.31255896 0-.56603773-.2534788-.56603773-.5660377v-1.1320755c0-.312559.25347877-.5660377.56603773-.5660377s.56603774.2534787.56603774.5660377v1.1320755c0 .3125589-.25347878.5660377-.56603774.5660377zm0-13.58490566c-.31255896 0-.56603773-.25347877-.56603773-.56603773v-1.13207547c0-.31255897.25347877-.56603774.56603773-.56603774s.56603774.25347877.56603774.56603774v1.13207547c0 .31255896-.25347878.56603773-.56603774.56603773z"/><path d="m3.35589623 3.92193415c-.14487029 0-.28974057-.05518887-.40011793-.16592l-.63466981-.63466981c-.22110849-.22110849-.22110849-.57930425 0-.80041274s.57930425-.22110849.80041274 0l.63466981.63466982c.22110849.22110849.22110849.57930424 0 .80041273-.1060606.10633422-.25010892.16604139-.40029481.16592zm9.77193397 9.77193385c-.1448703 0-.2897406-.0551888-.4001179-.1659199l-.6346698-.6346698c-.2211085-.2211085-.2211085-.5793042 0-.8004127.2211084-.2211085.5793042-.2211085.8004127 0l.6346698.6346698c.2211085.2211085.2211085.5793042 0 .8004127-.1060794.1063061-.2501155.1660082-.4002948.1659199z"/><path d="m2.72122642 13.6938682c-.14487029 0-.28974057-.055189-.40011793-.1659201-.22110849-.2211085-.22110849-.5793042 0-.8004127l.63466981-.6346698c.22110849-.2211085.57930425-.2211085.80041274 0s.22110849.5793042 0 .8004127l-.63466981.6346698c-.10604175.1063624-.25010232.1660747-.40029481.1659201zm9.77193398-9.77193394c-.1448703 0-.2897406-.05518898-.4001179-.16592011-.2211085-.22110849-.2211085-.57930424 0-.80041273l.6346698-.63466982c.2211085-.22110849.5793042-.22110849.8004127 0s.2211085.57930425 0 .80041274l-.6346698.63466981c-.1060418.10636239-.2501023.16607464-.4002948.16592011z"/></g></g></g></svg>

<?xml version="1.0" encoding="UTF-8"?>
<svg width="28px" height="28px" viewBox="0 0 28 28" version="1.1" xmlns="http://www.w3.org/2000/svg" xmlns:xlink="http://www.w3.org/1999/xlink">
    <title>月亮备份 2</title>
    <defs>
        <filter id="filter-1">
            <feColorMatrix in="SourceGraphic" type="matrix" values="0 0 0 0 0.002548 0 0 0 0 0.002367 0 0 0 0 0.002367 0 0 0 1.000000 0"></feColorMatrix>
        </filter>
    </defs>
    <g id="页面-1" stroke="none" stroke-width="1" fill="none" fill-rule="evenodd">
        <g id="月亮备份" transform="translate(-911.000000, -22.000000)" filter="url(#filter-1)">
            <g transform="translate(911.000000, 22.000000)">
                <g id="编组-16" transform="translate(0.008511, 0.001793)">
                    <rect id="矩形备份-2" stroke-opacity="0.2" stroke="#000000" stroke-width="0.5" x="0.25" y="0.25" width="27.5" height="27.5" rx="5"></rect>
                    <g id="亮度" transform="translate(6.000000, 6.000000)" fill="#333333" fill-rule="nonzero">
                        <path d="M7.9245283,4.52830189 C9.79722877,4.52830189 11.3207547,6.05182783 11.3207547,7.9245283 C11.3207547,9.79722877 9.79722877,11.3207547 7.9245283,11.3207547 C6.05182783,11.3207547 4.52830189,9.79722877 4.52830189,7.9245283 C4.52830189,6.05182783 6.05182783,4.52830189 7.9245283,4.52830189 M7.9245283,3.39622642 C5.42352594,3.39622642 3.39622642,5.42370283 3.39622642,7.9245283 C3.39622642,10.4253538 5.42352594,12.4528302 7.9245283,12.4528302 C10.4255307,12.4528302 12.4528302,10.4253538 12.4528302,7.9245283 C12.4528302,5.42370283 10.4255307,3.39622642 7.9245283,3.39622642 Z M1.69811321,8.49056604 L0.566037736,8.49056604 C0.253478774,8.49056604 0,8.23708726 0,7.9245283 C0,7.61196934 0.253478774,7.35849057 0.566037736,7.35849057 L1.69811321,7.35849057 C2.01067217,7.35849057 2.26415094,7.61196934 2.26415094,7.9245283 C2.26415094,8.23708726 2.01067217,8.49056604 1.69811321,8.49056604 Z M15.2830189,8.49056604 L14.1509434,8.49056604 C13.8383844,8.49056604 13.5849057,8.23708726 13.5849057,7.9245283 C13.5849057,7.61196934 13.8383844,7.35849057 14.1509434,7.35849057 L15.2830189,7.35849057 C15.5955778,7.35849057 15.8490566,7.61196934 15.8490566,7.9245283 C15.8490566,8.23708726 15.5955778,8.49056604 15.2830189,8.49056604 Z" id="形状"></path>
                        <path d="M7.9245283,15.8490566 C7.61196934,15.8490566 7.35849057,15.5955778 7.35849057,15.2830189 L7.35849057,14.1509434 C7.35849057,13.8383844 7.61196934,13.5849057 7.9245283,13.5849057 C8.23708726,13.5849057 8.49056604,13.8383844 8.49056604,14.1509434 L8.49056604,15.2830189 C8.49056604,15.5955778 8.23708726,15.8490566 7.9245283,15.8490566 Z M7.9245283,2.26415094 C7.61196934,2.26415094 7.35849057,2.01067217 7.35849057,1.69811321 L7.35849057,0.566037736 C7.35849057,0.253478774 7.61196934,0 7.9245283,0 C8.23708726,0 8.49056604,0.253478774 8.49056604,0.566037736 L8.49056604,1.69811321 C8.49056604,2.01067217 8.23708726,2.26415094 7.9245283,2.26415094 Z" id="形状"></path>
                        <path d="M3.35589623,3.92193415 C3.21102594,3.92193415 3.06615566,3.86674528 2.9557783,3.75601415 L2.32110849,3.12134434 C2.1,2.90023585 2.1,2.54204009 2.32110849,2.3209316 C2.54221698,2.09982311 2.90041274,2.09982311 3.12152123,2.3209316 L3.75619104,2.95560142 C3.97729953,3.17670991 3.97729953,3.53490566 3.75619104,3.75601415 C3.65013044,3.86234837 3.50608212,3.92205554 3.35589623,3.92193415 L3.35589623,3.92193415 Z M13.1278302,13.693868 C12.9829599,13.693868 12.8380896,13.6386792 12.7277123,13.5279481 L12.0930425,12.8932783 C11.871934,12.6721698 11.871934,12.3139741 12.0930425,12.0928656 C12.3141509,11.8717571 12.6723467,11.8717571 12.8934552,12.0928656 L13.528125,12.7275354 C13.7492335,12.9486439 13.7492335,13.3068396 13.528125,13.5279481 C13.4220456,13.6342542 13.2780095,13.6939563 13.1278302,13.693868 L13.1278302,13.693868 Z" id="形状"></path>
                        <path d="M2.72122642,13.6938682 C2.57635613,13.6938682 2.43148585,13.6386792 2.32110849,13.5279481 C2.1,13.3068396 2.1,12.9486439 2.32110849,12.7275354 L2.9557783,12.0928656 C3.17688679,11.8717571 3.53508255,11.8717571 3.75619104,12.0928656 C3.97729953,12.3139741 3.97729953,12.6721698 3.75619104,12.8932783 L3.12152123,13.5279481 C3.01547948,13.6343105 2.87141891,13.6940228 2.72122642,13.6938682 L2.72122642,13.6938682 Z M12.4931604,3.92193426 C12.3482901,3.92193426 12.2034198,3.86674528 12.0930425,3.75601415 C11.871934,3.53490566 11.871934,3.17670991 12.0930425,2.95560142 L12.7277123,2.3209316 C12.9488208,2.09982311 13.3070165,2.09982311 13.528125,2.3209316 C13.7492335,2.54204009 13.7492335,2.90023585 13.528125,3.12134434 L12.8934552,3.75601415 C12.7874134,3.86237654 12.6433529,3.92208879 12.4931604,3.92193426 L12.4931604,3.92193426 Z" id="形状"></path>
                    </g>
                </g>
            </g>
        </g>
    </g>
</svg>
